!!!COM: Bach, Johann Sebastian
!!!CDT: 1685/3/-1750/7/28
!!!OPR@@DE: Das wohltemperierte Klavier
!!!OPR@EN: The Well-Tempered Clavier
!!!OTL: The Well-Tempered Clavier, Book 2, Fugue 21 in B-flat major
!!!SCT: BWV 890b
!!!parts: 3
**kern	**kern	**kern
*staff2	*staff1	*staff1
*clefF4	*clefG2	*clefG2
*k[b-e-]	*k[b-e-]	*k[b-e-]
*M3/4	*M3/4	*M3/4
*B-:	*B-:	*B-:
*MM110	*MM110	*MM110
=1	=1	=1
2.r	8r	2.r
.	8cc	.
.	8b-L	.
.	8aJ	.
.	8b-L	.
.	8fJ	.
=2	=2	=2
2.r	8dL	2.r
.	8gJ	.
.	8fL	.
.	8e-J	.
.	8fL	.
.	8dJ	.
=3	=3	=3
2.r	8B-L	2.r
.	8e-J	.
.	(8e-L	.
.	8d)J	.
.	(8dL	.
.	8c)J	.
=4	=4	=4
2.r	8cL	2.r
.	8fJ	.
.	(8fL	.
.	8e-)J	.
.	(8e-L	.
.	8d)J	.
=5	=5	=5
2.r	4d	8r
.	.	8gg
.	4c	8ffL
.	.	8ee-J
.	4B-	8ffL
.	.	8b-J
=6	=6	=6
2.r	4c	8aL
.	.	8ddJ
.	4d	8ccL
.	.	8b-J
.	4e-	8ccL
.	.	8aJ
=7	=7	=7
2.r	4d	8fL
.	.	8b-J
.	4en	8b-L
.	.	8aJ
.	[4f	8aL
.	.	8gJ
=8	=8	=8
2.r	4f]	8gL
.	.	8ccJ
.	8enL	8ccL
.	8dJ	8b-J
.	4e-	8b-L
.	.	8aJ
=9	=9	=9
2.r	8fL	4a
.	8e-J	.
.	8dL	[2a-
.	8cJ	.
.	8dL	.
.	8fJ	.
=10	=10	=10
2.r	4B-	8a-]L
.	.	8ggJ
.	4d	8ffL
.	.	8ee-J
.	4B-	8ffL
.	.	8a-J
=11	=11	=11
2.r	8e-L	4g
.	8dJ	.
.	8cL	[2gg
.	8B-J	.
.	8cL	.
.	8e-J	.
=12	=12	=12
2.r	4A	8gg]L
.	.	8ffJ
.	4c	8ee-L
.	.	8ddJ
.	4f	8ee-L
.	.	8cccJ
=13	=13	=13
8r	4B-	[2.dd
8c	.	.
8B-L	4d	.
8AJ	.	.
8B-L	4f	.
8FJ	.	.
=14	=14	=14
8DL	[2.b-	8dd]L
8GJ	.	8ee-J
8FL	.	8ddL
8E-J	.	8ccJ
8FL	.	8ddL
8DJ	.	8ffJ
=15	=15	=15
8BB-L	2.b-_	8aa-L
8E-J	.	8ggJ
8E-L	.	8ggL
8DJ	.	8ffJ
8DL	.	8ffL
8CJ	.	8ee-J
=16	=16	=16
8CL	2b-]	8ee-L
8FJ	.	8ddJ
8FL	.	8ddL
8E-J	.	8ccJ
8E-L	4a	8ccL
8DJ	.	8b-J
=17	=17	=17
8DL	8b-L	[2.b-
8GJ	8e-J	.
8GL	8e-L	.
8FJ	8dJ	.
8FL	8dL	.
8E-J	8cJ	.
=18	=18	=18
4E-	8cL	4b-]
.	8fJ	.
4F	8fL	[2a
.	8e-J	.
4FF	8e-L	.
.	8dJ	.
=19	=19	=19
4BB-	2.d	8a]L
.	.	8aJ
[2B-	.	8gL
.	.	8fJ
.	.	8gL
.	.	8b-J
=20	=20	=20
8B-]L	4c	4en
8AJ	.	.
8AL	4d	4f
8GJ	.	.
8GL	4en	4g
8FJ	.	.
=21	=21	=21
8FL	4f	8aL
8GJ	.	8b-J
8FL	4r	8aL
8EnJ	.	8gJ
8FL	4r	8aL
8CJ	.	8ccJ
=22	=22	=22
8AAL	8r	[2.ff
8DJ	8b-	.
8CL	8aL	.
8BB-J	8gJ	.
8CL	8aL	.
8AAJ	8ccJ	.
=23	=23	=23
8FFL	8ee-L	2.ff_
8BB-J	8ddJ	.
8BB-L	8ddL	.
8AAJ	8ccJ	.
8AAL	8ccL	.
8GGJ	8b-J	.
=24	=24	=24
8GGL	8b-L	2ff]
8CJ	8aJ	.
8CL	8aL	.
8BB-J	8gJ	.
8BB-L	8gL	[4ee-
8AAJ	8fJ	.
=25	=25	=25
4AA	2.f	8ee-]L
.	.	8ee-J
[2BB-	.	8ddL
.	.	8ccJ
.	.	8ddL
.	.	8b-J
=26	=26	=26
4BB-]	4en	8gL
.	.	8ddJ
2AA	2e-	8ccL
.	.	8b-J
.	.	8ccL
.	.	8aJ
=27	=27	=27
8BB-L	4d	4f
8AJ	.	.
8GL	4d-	[2b-
8FJ	.	.
8GL	4B-	.
8EnJ	.	.
=28	=28	=28
8CL	4en	4b-]
8GJ	.	.
8FL	4f	4a
8EnJ	.	.
8FL	4r	4r
8DJ	.	.
=29	=29	=29
4BBn	8r	2.r
.	8a-	.
4BB	8a-L	.
.	8gJ	.
4BB	8gL	.
.	8fJ	.
=30	=30	=30
4BB-	2.en	8r
.	.	8dd
4BB-	.	8ccL
.	.	8b-J
4BB-	.	8ccL
.	.	8aJ
=31	=31	=31
4AA	4f	8f
.	.	4a
4BB-	4d	.
.	.	8g
4C	4G	8fL
.	.	8enJ
=32	=32	=32
4FF	8AL	8f
.	8gJ	8r
4r	8fL	4r
.	8enJ	.
4r	8fL	4r
.	8cJ	.
=33	=33	=33
4r	8AL	4r
.	8dJ	.
2AA	8cL	8cL
.	8B-J	8dJ
.	8cL	[4e-
.	8AJ	.
=34	=34	=34
2.BB-	8FL	4e-]
.	8B-J	.
.	8B-L	8dL
.	8AJ	8enJ
.	8AL	[4f
.	8GJ	.
=35	=35	=35
2.C	8GL	4f]
.	8cJ	.
.	8cL	8enL
.	8B-J	8fJ
.	8B-L	[4g
.	8AJ	.
=36	=36	=36
8FFL	4A	8g]L
8FJ	.	8fJ
8FL	4B-	4g
8E-J	.	.
8E-L	[4c	8.aL
8DJ	.	.
.	.	32b-
.	.	32ccJ
=37	=37	=37
4D	8c]L	4f
.	8B-J	.
4C	8B-L	4e-
.	8A-J	.
4BB-	8A-L	4d
.	8GJ	.
=38	=38	=38
8r	4G	4e-
8E-	.	.
8E-L	4An	4c
8DJ	.	.
8DL	[4B-	4d
8CJ	.	.
=39	=39	=39
8CL	8B-]L	4e-
8FJ	8AJ	.
8FL	8AL	4d
8E-J	8GJ	.
8E-L	8GL	[4c
8DJ	8FJ	.
=40	=40	=40
8DL	4F	8c]L
8E-J	.	8cccJ
8DL	4r	8bb-L
8CJ	.	8aaJ
8DL	4r	8bb-L
8FJ	.	8ffJ
=41	=41	=41
4B-	4r	8ddL
.	.	8ggJ
8BB-L	2f	8ffL
8CJ	.	8ee-J
[4D	.	8ffL
.	.	8ddJ
=42	=42	=42
4D]	2.g	8b-L
.	.	8ee-J
8CL	.	8ee-L
8DJ	.	8ddJ
[4E-	.	8ddL
.	.	8ccJ
=43	=43	=43
4E-]	2.a	8ccL
.	.	8ffJ
8DL	.	8ffL
8E-J	.	8ee-J
[4F	.	8ee-L
.	.	8ddJ
=44	=44	=44
8F]L	8dL	[2.dd
8DJ	8ccJ	.
8EnL	8b-L	.
8F#J	8aJ	.
[4G	8b-L	.
.	8gJ	.
=45	=45	=45
8G]L	[2.e-	8dd]L
8B-J	.	8ddJ
8AL	.	8ccL
8GJ	.	8b-J
8AL	.	8ccL
8cJ	.	8aJ
=46	=46	=46
4D	8e-]L	4f#
.	8dJ	.
4En	8dL	4g
.	8cJ	.
4F#	8cL	[4a
.	8B-J	.
=47	=47	=47
8GL	2B-	4a]
8AJ	.	.
8GL	.	4dd
8F#J	.	.
8GL	4r	4b-
8DJ	.	.
=48	=48	=48
8BB-L	4r	4g
8E-J	.	.
8DL	4c	4a
8CJ	.	.
8DL	4A	4f#
8BB-J	.	.
=49	=49	=49
8GGL	8B-L	2.g
8CJ	8GJ	.
8CL	8enL	.
8BB-J	8f#J	.
8BB-L	[4g	.
8AAJ	.	.
=50	=50	=50
8AAL	4g]	2.a
8DJ	.	.
8DL	8f#L	.
8CJ	8gJ	.
8CL	[4a	.
8BB-J	.	.
=51	=51	=51
2BB-	8a]L	4d
.	8gJ	.
.	8gL	[2dd
.	8fnJ	.
4BBn	8fL	.
.	8e-J	.
=52	=52	=52
4C	8e-L	4dd]
.	8a-J	.
4c	8a-L	8ccL
.	8gJ	8ddJ
4B-	8gL	[4ee-
.	8fJ	.
=53	=53	=53
4A-	[2.f	8ee-]L
.	.	8ee-J
4B-	.	8ddL
.	.	8ccJ
4BB-	.	8ddL
.	.	8b-J
=54	=54	=54
[2.E-	8f]L	8gL
.	8fJ	8a-J
.	8e-L	8gL
.	8dJ	8fJ
.	8e-L	8gL
.	8B-J	8b-J
=55	=55	=55
8E-]L	8GL	8e-L
8A-J	8cJ	8fJ
8GL	8B-L	8e-L
8FJ	8A-J	8dJ
8GL	8B-L	8e-L
8E-J	8GJ	8b-J
=56	=56	=56
4.C	8E-L	2.ee-
.	8A-J	.
.	8A-L	.
8D	8GJ	.
[4E-	8GL	.
.	8FJ	.
=57	=57	=57
4E-]	8FL	2.ff
.	8B-J	.
8DL	8B-L	.
8E-J	8A-J	.
[4F	8A-L	.
.	8GJ	.
=58	=58	=58
4F]	4G	8b-L
.	.	8dd-J
8EnL	4g	8dd-L
8FJ	.	8ccJ
[4G	4en	8ccL
.	.	8b-J
=59	=59	=59
8G]L	4c	[2.a-
8FJ	.	.
8FL	8dL	.
8E-J	8e-J	.
8E-L	4f	.
8DJ	.	.
=60	=60	=60
4D	2.Bn	8a-]L
.	.	8gJ
4G	.	8fL
.	.	8e-J
4GG	.	8fL
.	.	8dJ
=61	=61	=61
8CL	4c	4e-
8BB-J	.	.
8BB-L	4e-	4g
8AA-J	.	.
8AA-L	[4f	4cc
8GGJ	.	.
=62	=62	=62
4GG	8f]L	8bnL
.	8a-J	8ccJ
4BBn	8gL	[2dd
.	8fJ	.
4GG	8gL	.
.	8dJ	.
=63	=63	=63
[2.C	8e-L	8dd]L
.	8FJ	8ddJ
.	8E-L	8ccL
.	8DJ	8bnJ
.	8E-L	8ccL
.	8GJ	8gJ
=64	=64	=64
8C]L	4c	8e-L
8DJ	.	8a-J
2E-	8GL	8gL
.	8A-J	8fJ
.	[4B-	8gL
.	.	8e-J
=65	=65	=65
2.F	4B-]	8cL
.	.	8fJ
.	8AnL	8fL
.	8BnJ	8e-J
.	[4c	8e-L
.	.	8dJ
=66	=66	=66
2.G	4c]	8dL
.	.	8gJ
.	8BnL	8gL
.	8cJ	8fJ
.	[4d	8fL
.	.	8e-J
=67	=67	=67
4C	8d]L	2e-
.	8dJ	.
4E-	8cL	.
.	8BnJ	.
4C	8cL	[4ee-
.	8GJ	.
=68	=68	=68
4F	4A	8ee-]L
.	.	8ffJ
4A	4c	8ee-L
.	.	8ddJ
4F	[4f	8ee-L
.	.	8ccJ
=69	=69	=69
8BB-L	4f]	[2.dd
8cJ	.	.
8B-L	4f	.
8AJ	.	.
8B-L	4b-	.
8GJ	.	.
=70	=70	=70
8EnL	4g	4dd]
8AJ	.	.
8AL	4en	8ccL
8GJ	.	8b-J
8GL	4a	[4cc
8F#J	.	.
=71	=71	=71
8F#L	2d	4cc]
8AJ	.	.
8GL	.	8b-L
8F#J	.	8aJ
8GL	4g	[4b-
8E-J	.	.
=72	=72	=72
8CL	4e-	4b-]
8FnJ	.	.
8FL	4c	8a-L
8E-J	.	8gJ
8E-L	4f	[4a-
8DJ	.	.
=73	=73	=73
8DL	2B-	4a-]
8FJ	.	.
8E-L	.	8gL
8DJ	.	8fJ
8E-L	4e-	[4g
8CJ	.	.
=74	=74	=74
8AAL	4c	4g]
8DJ	.	.
8DL	4A	8fL
8CJ	.	8e-J
8CL	4d	[4f
8BB-J	.	.
=75	=75	=75
8BB-L	2G	4f]
8CJ	.	.
8CL	.	8e-L
8BB-J	.	8dJ
8BB-L	4c	4e-
8AAJ	.	.
=76	=76	=76
2.AA	4F	8e-L
.	.	8fJ
.	4C	8e-L
.	.	8dJ
.	[4F	8e-L
.	.	8cJ
=77	=77	=77
4BB-	8F]L	4d
.	8cJ	.
4GG	8B-L	2en
.	8AJ	.
4C	8B-L	.
.	8GJ	.
=78	=78	=78
4.FF	8A	8fL
.	8r	8ggJ
.	4r	8ffL
8GG	.	8eenJ
*	*	*strophe
*	*	*^
*	*	*S/sic	*S/ossia
8AAL	4r	8ffL	8ffL
8BB-J	.	8ccxxJ	8b-xxJ
*	*	*v	*v
*	*	*Xstrophe
=79	=79	=79
8CL	2.r	8aL
8DJ	.	8ddJ
8E-L	.	8ccL
8DJ	.	8b-J
8E-L	.	8ccL
8CJ	.	8aJ
=80	=80	=80
2.D	4r	8fL
.	.	8b-J
.	8dL	8b-L
.	8e-J	8a-J
.	[4f	8a-L
.	.	8gJ
=81	=81	=81
2.E-	4f]	8gL
.	.	8ccJ
.	8e-L	8ccL
.	8fJ	8b-J
.	[4g	8b-L
.	.	8anJ
=82	=82	=82
2.F	8g]L	8aL
.	8fJ	8b-J
.	8e-L	[2cc
.	8dJ	.
.	8e-L	.
.	8cJ	.
=83	=83	=83
2.BB-	8dL	4cc]
.	8gJ	.
.	8gL	8b-L
.	8fJ	8ccJ
.	8fL	[4dd
.	8enJ	.
=84	=84	=84
2.C	8enL	4dd]
.	8aJ	.
.	8aL	8ccL
.	8gJ	8ddJ
.	8gL	[4ee-
.	8f#J	.
=85	=85	=85
2.D	8f#L	8ee-]L
.	8gJ	8ddJ
.	8aL	8ccL
.	8gJ	8b-J
.	8aL	8ccL
.	8f#J	8aJ
=86	=86	=86
8GGL	4g	8b-L
8AJ	.	8ccJ
8GL	4r	8b-L
8F#J	.	8aJ
8GL	4r	8b-L
8E-J	.	8gJ
=87	=87	=87
8CL	8r	[2.ee-
8DJ	8b-	.
8CL	8aL	.
8BB-J	8gJ	.
8CL	8gL	.
8AAJ	8fJ	.
=88	=88	=88
8FFL	8cc 8a 8f	8ee-]L
8GJ	8r	8b-J
8FL	4r	8aL
8E-J	.	8gJ
8FL	4r	8aL
8DJ	.	8fJ
=89	=89	=89
8BB-L	8r	2dd
8CJ	8a	.
8BB-L	8b-L	.
8AAJ	8ccJ	.
8BB-L	8ddL	4r
8GGJ	8ffJ	.
=90	=90	=90
4EEn	8bb-L	2.r
.	8dd-J	.
4EE	8dd-L	.
.	8ccJ	.
4EE	8ccL	.
.	8b-J	.
=91	=91	=91
4EE-	2.a	8r
.	.	8gg
4EE-	.	8ffL
.	.	8ee-J
4EE-	.	8ffL
.	.	8ddJ
=92	=92	=92
4DD	4b-	8b-
.	.	4dd
4EE-	4g	.
.	.	8cc
4FF	4c	8b-L
.	.	8aJ
=93	=93	=93
2.BB-	2.d	2.b-
==	==	==
*-	*-	*-
!!!OTA: Das wohltemperirte Clavier
!!!OCY: Deutschland
!!!PPP: Leipzig
!!!ODT: 1738//-1742//
!!!PDT: 1739//-1742//
!!!AFR: fuga; fugue
!!!AST: polyphony
!!!AMT: simple triple
!!!SCA: Bach-Werke-Verzeichnis
!!!YOR: Bach-Gesellschaft Ausgabe, Band 14
!!!YOO: Breitkopf und Härtel
!!!YOY: 1866
!!!YOE: Franz Kroll (1820-1877)
!!!AIN: cemba; clavi
!!!YEC: Copyright 1994, David Huron
!!!YEM: Rights to all derivative electronic formats reserved.
!!!ENC: David Huron
!!!END: 1986/12/14
!!!EED: David Huron
!!!YER: 1994/08/10
!!!EED2: Craig Stuart Sapp (notational niceties)
!!!EEV: 2020/09/19
!!!EFL: 45/48
